assets/img/tech/flow.svg

<?xml version="1.0" encoding="UTF-8" standalone="no"?>
<svg width="256px" height="317px" viewBox="0 0 256 317" version="1.1" xmlns="http://www.w3.org/2000/svg" xmlns:xlink="http://www.w3.org/1999/xlink" preserveAspectRatio="xMidYMid">
    <defs>
        <linearGradient x1="16.1074159%" y1="58.1870482%" x2="72.7087331%" y2="72.8896084%" id="linearGradient-1">
            <stop stop-color="#FFD441" offset="0%"></stop>
            <stop stop-color="#FFB047" offset="100%"></stop>
        </linearGradient>
        <linearGradient x1="70.2130942%" y1="65.7967809%" x2="100%" y2="0%" id="linearGradient-2">
            <stop stop-color="#FFD754" offset="0%"></stop>
            <stop stop-color="#FFB532" offset="100%"></stop>
        </linearGradient>
        <linearGradient x1="22.1778859%" y1="66.1379895%" x2="22.1778855%" y2="9.31617093%" id="linearGradient-3">
            <stop stop-color="#FFD642" offset="0%"></stop>
            <stop stop-color="#FFD441" offset="0%"></stop>
            <stop stop-color="#FFB532" offset="100%"></stop>
        </linearGradient>
        <linearGradient x1="88.9529566%" y1="24.2984871%" x2="12.5786107%" y2="6.96628778%" id="linearGradient-4">
            <stop stop-color="#FFD441" offset="0%"></stop>
            <stop stop-color="#FFA829" offset="100%"></stop>
        </linearGradient>
    </defs>
	<g>
		<path d="M211.6896,309.978667 L211.6896,228.120533 L130.488533,228.120533 L211.6896,309.978667" fill-opacity="0.7" fill="#FFDF51"></path>
		<path d="M220.801067,263.565867 L220.801067,175.032533 L132.9792,175.032533 L220.801067,263.565867" fill-opacity="0.7" fill="#FF8900"></path>
		<path d="M167.466667,228.1184 L167.466667,316.651733 L255.288533,316.651733 L167.466667,228.1184" fill-opacity="0.699999988" fill="url(#linearGradient-1)"></path>
		<path d="M202.443733,180.962133 L202.443733,110.935467 L132.977067,110.935467 L202.443733,180.962133" fill-opacity="0.7" fill="#FFDF4F"></path>
		<path d="M235.424,164.266667 L235.424,75.7333333 L147.602133,75.7333333 L235.424,164.266667" fill-opacity="0.799999952" fill="url(#linearGradient-2)"></path>
		<path d="M85.7354667,0 L85.7354667,88.5333333 L173.557333,88.5333333 L85.7354667,0" fill-opacity="0.8" fill="url(#linearGradient-3)"></path>
		<path d="M106.333867,138.666667 L106.333867,50.1333333 L0.135466667,50.1333333 L87.5776,138.6848 L106.333867,138.666667" fill-opacity="0.879999995" fill="url(#linearGradient-4)"></path>
		<path d="M106.333867,316.174933 L106.333867,209.066667 L0.135466667,209.066667 L106.333867,316.174933" fill-opacity="0.7" fill="#FFB700"></path>
		<path d="M106.357333,227.466667 L106.357333,138.933333 L18.5354667,138.933333 L106.357333,227.466667" fill-opacity="0.5" fill="#FFB700"></path>
		<path d="M132.976,110.933333 L132.976,199.466667 L220.798933,199.466667 L132.976,110.933333" fill-opacity="0.7" fill="#FFCD25"></path>
		<path d="M106.135467,120.8992 L106.135467,32.3658667 L18.3125333,32.3658667 L106.135467,120.8992" fill-opacity="0.700000048" fill="#FF8900"></path>
		<path d="M130.488533,228.1184 L130.488533,316.651733 L218.311467,316.651733 L130.488533,228.1184" fill-opacity="0.7" fill="#FF8900"></path>
	</g>
</svg>

<svg width="256" height="317" viewBox="0 0 256 317" xmlns="http://www.w3.org/2000/svg" preserveAspectRatio="xMidYMid"><defs><linearGradient x1="16.107%" y1="58.187%" x2="72.709%" y2="72.89%" id="a"><stop stop-color="#FFD441" offset="0%"/><stop stop-color="#FFB047" offset="100%"/></linearGradient><linearGradient x1="70.213%" y1="65.797%" y2="0%" id="b"><stop stop-color="#FFD754" offset="0%"/><stop stop-color="#FFB532" offset="100%"/></linearGradient><linearGradient x1="22.178%" y1="66.138%" x2="22.178%" y2="9.316%" id="c"><stop stop-color="#FFD642" offset="0%"/><stop stop-color="#FFD441" offset="0%"/><stop stop-color="#FFB532" offset="100%"/></linearGradient><linearGradient x1="88.953%" y1="24.298%" x2="12.579%" y2="6.966%" id="d"><stop stop-color="#FFD441" offset="0%"/><stop stop-color="#FFA829" offset="100%"/></linearGradient></defs><path d="M211.69 309.979V228.12h-81.201l81.2 81.858" fill-opacity=".7" fill="#FFDF51"/><path d="M220.801 263.566v-88.533H132.98l87.822 88.533" fill-opacity=".7" fill="#FF8900"/><path d="M167.467 228.118v88.534h87.822l-87.822-88.534" fill-opacity=".7" fill="url(#a)"/><path d="M202.444 180.962v-70.027h-69.467l69.467 70.027" fill-opacity=".7" fill="#FFDF4F"/><path d="M235.424 164.267V75.733h-87.822l87.822 88.534" fill-opacity=".8" fill="url(#b)"/><path d="M85.735 0v88.533h87.822L85.735 0" fill-opacity=".8" fill="url(#c)"/><path d="M106.334 138.667V50.133H.135l87.443 88.552 18.756-.018" fill-opacity=".88" fill="url(#d)"/><path d="M106.334 316.175V209.067H.135l106.199 107.108" fill-opacity=".7" fill="#FFB700"/><path d="M106.357 227.467v-88.534H18.535l87.822 88.534" fill-opacity=".5" fill="#FFB700"/><path d="M132.976 110.933v88.534h87.823l-87.823-88.534" fill-opacity=".7" fill="#FFCD25"/><path d="M106.135 120.9V32.365H18.313l87.822 88.533m24.354 107.22v88.534h87.822l-87.822-88.534" fill-opacity=".7" fill="#FF8900"/></svg>
